src/img/icons/ico_25.svg

<svg width="60" height="60" viewBox="0 0 60 60" fill="none" xmlns="http://www.w3.org/2000/svg">
<path d="M24.375 11.25H13.125C12.0895 11.25 11.25 12.0895 11.25 13.125V24.375C11.25 25.4105 12.0895 26.25 13.125 26.25H24.375C25.4105 26.25 26.25 25.4105 26.25 24.375V13.125C26.25 12.0895 25.4105 11.25 24.375 11.25Z" stroke="#ED6E77" stroke-width="2" stroke-linecap="round" stroke-linejoin="round"/>
<path d="M24.375 33.75H13.125C12.0895 33.75 11.25 34.5895 11.25 35.625V46.875C11.25 47.9105 12.0895 48.75 13.125 48.75H24.375C25.4105 48.75 26.25 47.9105 26.25 46.875V35.625C26.25 34.5895 25.4105 33.75 24.375 33.75Z" stroke="#ED6E77" stroke-width="2" stroke-linecap="round" stroke-linejoin="round"/>
<path d="M46.875 11.25H35.625C34.5895 11.25 33.75 12.0895 33.75 13.125V24.375C33.75 25.4105 34.5895 26.25 35.625 26.25H46.875C47.9105 26.25 48.75 25.4105 48.75 24.375V13.125C48.75 12.0895 47.9105 11.25 46.875 11.25Z" stroke="#ED6E77" stroke-width="2" stroke-linecap="round" stroke-linejoin="round"/>
<path d="M33.75 33.75V41.25" stroke="#ED6E77" stroke-width="2" stroke-linecap="round" stroke-linejoin="round"/>
<path d="M33.75 48.75H41.25V33.75" stroke="#ED6E77" stroke-width="2" stroke-linecap="round" stroke-linejoin="round"/>
<path d="M41.25 37.5H48.75" stroke="#ED6E77" stroke-width="2" stroke-linecap="round" stroke-linejoin="round"/>
<path d="M48.75 45V48.75" stroke="#ED6E77" stroke-width="2" stroke-linecap="round" stroke-linejoin="round"/>
</svg>

<svg xmlns="http://www.w3.org/2000/svg" width="60" height="60" fill="none">
  <path stroke="#ED6E77" stroke-linecap="round" stroke-linejoin="round" stroke-width="2" d="M24.375 11.25h-11.25c-1.036 0-1.875.84-1.875 1.875v11.25c0 1.035.84 1.875 1.875 1.875h11.25c1.035 0 1.875-.84 1.875-1.875v-11.25c0-1.036-.84-1.875-1.875-1.875ZM24.375 33.75h-11.25c-1.036 0-1.875.84-1.875 1.875v11.25c0 1.035.84 1.875 1.875 1.875h11.25c1.035 0 1.875-.84 1.875-1.875v-11.25c0-1.035-.84-1.875-1.875-1.875ZM46.875 11.25h-11.25c-1.035 0-1.875.84-1.875 1.875v11.25c0 1.035.84 1.875 1.875 1.875h11.25c1.035 0 1.875-.84 1.875-1.875v-11.25c0-1.036-.84-1.875-1.875-1.875ZM33.75 33.75v7.5M33.75 48.75h7.5v-15M41.25 37.5h7.5M48.75 45v3.75"/>
</svg>
